img/testimonial_bg.svg

<svg height="350" viewBox="0 0 717 350" width="717" xmlns="http://www.w3.org/2000/svg"><path d="m434.804761.05483871c-2.357929 0-7.216574 6.83066134-7.216574 6.83066134-.439941-.2392661-.849009-.34346263-1.215626-.34346263-3.4655 0-3.762653 9.58993978-3.762653 9.58993978-2.492998 4.6232386-14.583655 15.9999559-14.583655 15.9999559-19.415286 20.549871-38.26714 22.3250711-38.26714 22.3250711-2.342492-.0733235.077183-2.3463514.077183-2.3463514 4.978278-9.2426181.563433-18.7746709.563433-18.7746709-2.666659-4.7814629-6.579818-6.2209187-10.296161-6.2209187-5.584162 0-10.755397 3.2262333-10.755397 3.2262333-7.181842 4.4804507-.713939 23.4712329-.713939 23.4712329-1.462611.679207-2.909785.914614-4.214171.914614-2.952235 0-5.175094-1.2001897-5.175094-1.2001897l-20.696518-14.7264427c-18.415772-12.3067678-27.446138-24.32796-27.446138-24.32796-2.060776-9.46258847-4.337663-11.87840429-4.337663-11.87840429-.474673-.50554612-1.068979-.71008005-1.701876-.71008005-2.388802 0-5.406642 2.8403202-5.406642 2.8403202-2.419675 2.27688712-.285576 9.39312414-.285576 9.39312414 2.203563 4.7621673 13.510816 19.2030344 13.510816 19.2030344 13.792534 9.8176285 38.826714 36.4224755 38.826714 36.4224755 6.830662 7.2590249 5.252277 58.8941941 5.252277 58.8941941l-4.04051 62.189891c-141.0821 6.761197-263.3355013 68.831455-332.69565745 159.227733 84.13290845-75.970847 236.20967245-121.50859 381.18949445-121.50859 144.972104 0 251.414647 45.541602 335.547555 121.50859-70.490881-91.870466-195.611617-154.477143-339.603501-159.513309l.632897-20.719673c.21997-7.039054.081042-79.8685686.081042-79.8685686.428363-14.085827 2.990826-21.0515579 2.990826-21.0515579 14.367544-8.9609015 43.527135-40.9608133 43.527135-40.9608133 12.16398-13.7307871 12.457274-23.11619294 12.457274-23.11619294.138929-4.69656207-2.203564-4.76602642-2.203564-4.76602642-.011577-.00385913-.023154-.00385913-.038591-.00385913m-87.629281 190.27829829 3.145192-37.800185c.212252-7.039054 4.982138-9.242618 4.982138-9.242618.493968-.227689.964782-.331885 1.400864-.331885 3.770371 0 5.422079 7.587051 5.422079 7.587051 1.547511 5.19053 1.3314 27.820473 1.092134 39.6873-1.543653-.007718-3.087305-.030873-4.630957-.030873-3.81668 0-7.617924.050168-11.41145.13121" fill="#a6c87f"/></svg>

<svg xmlns="http://www.w3.org/2000/svg" width="717" height="350" viewBox="0 0 717 350">
  <path fill="#A6C87F" d="M434.804761,0.0548387097 C432.446832,0.0548387097 427.588187,6.88550005 427.588187,6.88550005 C427.148246,6.64623395 426.739178,6.54203742 426.372561,6.54203742 C422.907061,6.54203742 422.609908,16.1319772 422.609908,16.1319772 C420.11691,20.7552158 408.026253,32.1319331 408.026253,32.1319331 C388.610967,52.6818041 369.759113,54.4570042 369.759113,54.4570042 C367.416621,54.3836807 369.836296,52.1106528 369.836296,52.1106528 C374.814574,42.8680347 370.399729,33.3359819 370.399729,33.3359819 C367.73307,28.554519 363.819911,27.1150632 360.103568,27.1150632 C354.519406,27.1150632 349.348171,30.3412965 349.348171,30.3412965 C342.166329,34.8217472 348.634232,53.8125294 348.634232,53.8125294 C347.171621,54.4917364 345.724447,54.7271434 344.420061,54.7271434 C341.467826,54.7271434 339.244967,53.5269537 339.244967,53.5269537 L318.548449,38.800511 C300.132677,26.4937432 291.102311,14.472551 291.102311,14.472551 C289.041535,5.00996253 286.764648,2.59414671 286.764648,2.59414671 C286.289975,2.08860059 285.695669,1.88406666 285.062772,1.88406666 C282.67397,1.88406666 279.65613,4.72438686 279.65613,4.72438686 C277.236455,7.00127398 279.370554,14.117511 279.370554,14.117511 C281.574117,18.8796783 292.88137,33.3205454 292.88137,33.3205454 C306.673904,43.1381739 331.708084,69.7430209 331.708084,69.7430209 C338.538746,77.0020458 336.960361,128.637215 336.960361,128.637215 L332.919851,190.827106 C191.837751,197.588303 69.5843497,259.658561 0.224193548,350.054839 C84.357102,274.083992 236.433866,228.546249 381.413688,228.546249 C526.385792,228.546249 632.828335,274.087851 716.961243,350.054839 C646.470362,258.184373 521.349626,195.577696 377.357742,190.54153 L377.990639,169.821857 C378.210609,162.782803 378.071681,89.9532884 378.071681,89.9532884 C378.500044,75.8674614 381.062507,68.9017305 381.062507,68.9017305 C395.430051,59.940829 424.589642,27.9409172 424.589642,27.9409172 C436.753622,14.2101301 437.046916,4.82472426 437.046916,4.82472426 C437.185845,0.128162193 434.843352,0.0586978404 434.843352,0.0586978404 C434.831775,0.0548387097 434.820198,0.0548387097 434.804761,0.0548387097 M347.17548,190.333137 L350.320672,152.532952 C350.532924,145.493898 355.30281,143.290334 355.30281,143.290334 C355.796778,143.062645 356.267592,142.958449 356.703674,142.958449 C360.474045,142.958449 362.125753,150.5455 362.125753,150.5455 C363.673264,155.73603 363.457153,178.365973 363.217887,190.2328 C361.674234,190.225082 360.130582,190.201927 358.58693,190.201927 C354.77025,190.201927 350.969006,190.252095 347.17548,190.333137"/>
</svg>
